public/favicon.svg

<?xml version="1.0" encoding="UTF-8" standalone="no"?>
<svg
   width="256"
   height="256"
   viewBox="0 0 100 100"
   version="1.1"
   id="svg23"
   sodipodi:docname="favicon.svg"
   inkscape:version="1.1.2 (b8e25be833, 2022-02-05)"
   xmlns:inkscape="http://www.inkscape.org/namespaces/inkscape"
   xmlns:sodipodi="http://sodipodi.sourceforge.net/DTD/sodipodi-0.dtd"
   xmlns="http://www.w3.org/2000/svg"
   xmlns:svg="http://www.w3.org/2000/svg">
  <defs
     id="defs27" />
  <sodipodi:namedview
     id="namedview25"
     pagecolor="#ffffff"
     bordercolor="#999999"
     borderopacity="1"
     inkscape:pageshadow="0"
     inkscape:pageopacity="0"
     inkscape:pagecheckerboard="0"
     showgrid="false"
     inkscape:zoom="0.55795145"
     inkscape:cx="-569.94206"
     inkscape:cy="299.3092"
     inkscape:window-width="1920"
     inkscape:window-height="1017"
     inkscape:window-x="-8"
     inkscape:window-y="-8"
     inkscape:window-maximized="1"
     inkscape:current-layer="svg23" />
  <path
     id="rect19"
     style="stroke-width:2.56;fill:#ffd600;fill-opacity:1.0"
     d="M 256 127.36914 L 0 127.67383 L 0 204.80078 C 9.4739031e-15 233.16558 22.834419 256 51.199219 256 L 204.80078 256 C 233.16558 256 256 233.16558 256 204.80078 L 256 127.36914 z "
     transform="scale(0.390625)" />
  <path
     id="path2203"
     style="stroke-width:2.56;fill:#005bbc;fill-opacity:1.0"
     d="M 51.199219 0 C 22.834419 9.4739031e-15 0 22.834419 0 51.199219 L 0 127.67383 L 256 127.36914 L 256 51.199219 C 256 22.834419 233.16558 0 204.80078 0 L 51.199219 0 z "
     transform="scale(0.390625)" />
  <path
     d="m 53.119998,70.04 h -6.24 q -0.8,-1.92 -2.12,-4.88 -1.32,-2.96 -2.84,-6.4 -1.52,-3.44 -3.239996,-7.08 -1.72,-3.64 -3.24,-6.88 -1.52,-3.24 -2.84,-5.8 -1.32,-2.56 -2.12,-3.92 v 0 q -0.88,9.44 -1.44,20.44 -0.56,11 -0.96,22.2 v 0 h -7.6 q 0.32,-7.2 0.72,-14.52 0.4,-7.32 0.92,-14.4 0.52,-7.08 1.12,-13.8 0.6,-6.72 1.32,-12.72 v 0 h 6.8 q 2.16,3.52 4.64,8.32 2.48,4.8 4.959996,10.04 2.48,5.24 4.8,10.48 2.32,5.24 4.24,9.56 v 0 q 1.92,-4.32 4.24,-9.56 2.32,-5.24 4.8,-10.48 2.48,-5.24 4.96,-10.04 2.48,-4.8 4.64,-8.32 v 0 h 6.8 q 2.72,26.8 4.08,55.44 v 0 h -7.6 q -0.4,-11.2 -0.96,-22.2 -0.56,-11 -1.44,-20.44 v 0 q -0.8,1.36 -2.12,3.92 -1.32,2.56 -2.84,5.8 -1.52,3.24 -3.24,6.88 -1.72,3.64 -3.24,7.08 -1.52,3.44 -2.84,6.4 -1.32,2.96 -2.12,4.88 z"
     fill="#ffffff"
     id="path21"
     style="fill:#1abc9c;fill-opacity:1.0" />
</svg>

<svg xmlns="http://www.w3.org/2000/svg" width="256" height="256" viewBox="0 0 100 100">
    <rect width="100" height="100" rx="20" fill="#1abc9c">
    </rect>
    <path d="M53.12 70.04L46.88 70.04Q46.08 68.12 44.76 65.16Q43.44 62.20 41.92 58.76Q40.40 55.32 38.68 51.68Q36.96 48.04 35.44 44.80Q33.92 41.56 32.60 39Q31.28 36.44 30.48 35.08L30.48 35.08Q29.60 44.52 29.04 55.52Q28.48 66.52 28.08 77.72L28.08 77.72L20.48 77.72Q20.80 70.52 21.20 63.20Q21.60 55.88 22.12 48.80Q22.64 41.72 23.24 35Q23.84 28.28 24.56 22.28L24.56 22.28L31.36 22.28Q33.52 25.80 36 30.60Q38.48 35.40 40.96 40.64Q43.44 45.88 45.76 51.12Q48.08 56.36 50 60.68L50 60.68Q51.92 56.36 54.24 51.12Q56.56 45.88 59.04 40.64Q61.52 35.40 64 30.60Q66.48 25.80 68.64 22.28L68.64 22.28L75.44 22.28Q78.16 49.08 79.52 77.72L79.52 77.72L71.92 77.72Q71.52 66.52 70.96 55.52Q70.40 44.52 69.52 35.08L69.52 35.08Q68.72 36.44 67.40 39Q66.08 41.56 64.56 44.80Q63.04 48.04 61.32 51.68Q59.60 55.32 58.08 58.76Q56.56 62.20 55.24 65.16Q53.92 68.12 53.12 70.04L53.12 70.04Z" fill="#fff">
    </path>
</svg>
